svg/material-icons/playlist_add_circle/materialiconsround/20px.svg

<svg xmlns="http://www.w3.org/2000/svg" width="20" height="20" viewBox="0 0 20 20"><path d="M10 2c-4.42 0-8 3.58-8 8s3.58 8 8 8 8-3.58 8-8-3.58-8-8-8zM6.75 6h4c.41 0 .75.34.75.75s-.34.75-.75.75h-4c-.41 0-.75-.34-.75-.75S6.34 6 6.75 6zm1 6.5h-1c-.41 0-.75-.34-.75-.75s.34-.75.75-.75h1c.41 0 .75.34.75.75s-.34.75-.75.75zm-1-2.5C6.34 10 6 9.66 6 9.25s.34-.75.75-.75h4c.41 0 .75.34.75.75s-.34.75-.75.75h-4zm8 2.5H14v.75c0 .41-.34.75-.75.75s-.75-.34-.75-.75v-.75h-.75c-.41 0-.75-.34-.75-.75s.34-.75.75-.75h.75v-.75c0-.41.34-.75.75-.75s.75.34.75.75V11h.75c.41 0 .75.34.75.75s-.34.75-.75.75z"/></svg>

<svg xmlns="http://www.w3.org/2000/svg" enable-background="new 0 0 20 20" height="20" viewBox="0 0 20 20" width="20"><rect fill="none" height="20" width="20"/><path d="M10,2c-4.42,0-8,3.58-8,8s3.58,8,8,8s8-3.58,8-8S14.42,2,10,2z M6.75,6h4c0.41,0,0.75,0.34,0.75,0.75 c0,0.41-0.34,0.75-0.75,0.75h-4C6.34,7.5,6,7.16,6,6.75C6,6.34,6.34,6,6.75,6z M7.75,12.5h-1C6.34,12.5,6,12.16,6,11.75 C6,11.34,6.34,11,6.75,11h1c0.41,0,0.75,0.34,0.75,0.75C8.5,12.16,8.16,12.5,7.75,12.5z M6.75,10C6.34,10,6,9.66,6,9.25 C6,8.84,6.34,8.5,6.75,8.5h4c0.41,0,0.75,0.34,0.75,0.75c0,0.41-0.34,0.75-0.75,0.75H6.75z M14.75,12.5H14v0.75 c0,0.41-0.34,0.75-0.75,0.75s-0.75-0.34-0.75-0.75V12.5h-0.75c-0.41,0-0.75-0.34-0.75-0.75c0-0.41,0.34-0.75,0.75-0.75h0.75v-0.75 c0-0.41,0.34-0.75,0.75-0.75S14,9.84,14,10.25V11h0.75c0.41,0,0.75,0.34,0.75,0.75C15.5,12.16,15.16,12.5,14.75,12.5z"/></svg>
